flags/ky.svg

<svg width="512" height="512" viewBox="0 0 512 512" fill="none" xmlns="http://www.w3.org/2000/svg">
<rect width="512" height="512" fill="var(--flag-palette-navy, #002266)"/>
<rect width="256" height="256" fill="var(--flag-palette-navy, #002266)"/>
<path d="M232 256H256V232L152 128L256 24V0H232L128 104L24 0H0V24L104 128L0 232V256H24L128 152L232 256Z" fill="var(--flag-palette-white, #eeeeee)"/>
<path d="M256 160V96H160V0H96V96H0V160H96V256H160V160H256Z" fill="var(--flag-palette-white, #eeeeee)"/>
<path d="M256 144V112H144V0H112V112H0V144H112V256H144V144H256Z" fill="var(--flag-palette-bright-red, #d80027)"/>
<path d="M0 16V0L96 96H80L0 16Z" fill="var(--flag-palette-bright-red, #d80027)"/>
<path d="M256 240L256 256L160 160L176 160L256 240Z" fill="var(--flag-palette-bright-red, #d80027)"/>
<path d="M16 256L0 256L96 160L96 176L16 256Z" fill="var(--flag-palette-bright-red, #d80027)"/>
<path d="M240 -6.99382e-07L256 0L160 96L160 80L240 -6.99382e-07Z" fill="var(--flag-palette-bright-red, #d80027)"/>
<path fill-rule="evenodd" clip-rule="evenodd" d="M296.685 360.163C300.394 362.275 304.222 364.277 308.06 366.113L308.654 366.393L307.342 369.297L306.068 372.122L308.893 373.397C320.705 378.735 333.125 382.816 345.807 385.531C358.342 388.214 371.208 389.576 384.037 389.576C396.867 389.576 409.733 388.214 422.272 385.531C434.95 382.816 447.369 378.735 459.186 373.397L462.012 372.122L460.737 369.297L459.426 366.393L460.019 366.113C463.862 364.277 467.69 362.275 471.394 360.163L476.01 357.531L471.445 354.811C468.205 352.878 464.994 350.831 461.883 348.718C461.763 344.678 461.524 340.624 461.174 336.644L460.751 331.831L456.554 334.223C452.781 336.372 448.869 338.379 444.921 340.187L438.728 343.022L440.504 347.886C422.516 355.115 403.553 358.778 384.037 358.778C364.522 358.778 345.388 355.082 327.327 347.784L329.352 343.017L323.153 340.182C319.21 338.379 315.294 336.372 311.521 334.219L307.278 331.803L306.896 336.671C306.583 340.666 306.385 344.733 306.307 348.783C303.169 350.877 299.929 352.897 296.657 354.797L292.01 357.503L296.685 360.167L296.685 360.163Z" fill="var(--flag-palette-dark-yellow, #ffc635)"/>
<path d="M384.009 211.475C408.6 211.475 428.534 191.54 428.534 166.949C428.534 142.359 408.6 122.424 384.009 122.424C359.418 122.424 339.483 142.359 339.483 166.949C339.483 191.54 359.418 211.475 384.009 211.475Z" fill="var(--flag-palette-green, #6da544)"/>
<path d="M306.09 211.475V278.263C306.09 337.907 384.009 356.182 384.009 356.182C384.009 356.182 461.928 337.907 461.928 278.263V211.475H306.09Z" fill="var(--flag-palette-light-blue, #338af3)"/>
<path d="M384.005 247.148C364.526 247.148 364.526 264.959 345.048 264.959C325.569 264.959 325.569 247.148 306.091 247.148V278.316C325.569 278.316 325.569 296.126 345.048 296.126C364.526 296.126 364.526 278.316 384.005 278.316C403.486 278.316 403.486 296.126 422.967 296.126C442.449 296.126 442.448 278.316 461.929 278.316V247.148C442.449 247.148 442.449 264.959 422.967 264.959C403.486 264.959 403.486 247.148 384.005 247.148Z" fill="var(--flag-palette-light-grey, #f3f3f3)"/>
<path d="M384.005 184.759C364.526 184.759 364.526 202.569 345.048 202.569C325.569 202.569 325.569 184.759 306.091 184.759V215.926C325.569 215.926 325.569 233.737 345.048 233.737C364.526 233.737 364.526 215.926 384.005 215.926C403.486 215.926 403.486 233.737 422.967 233.737C442.449 233.737 442.448 215.926 461.929 215.926V184.759C442.449 184.759 442.449 202.569 422.967 202.569C403.486 202.569 403.486 184.759 384.005 184.759Z" fill="var(--flag-palette-light-grey, #f3f3f3)"/>
</svg>

<svg xmlns="http://www.w3.org/2000/svg" width="512" height="512" fill="none"><path fill="var(--flag-palette-navy, #002266)" d="M0 0h512v512H0z"/><path fill="var(--flag-palette-navy, #002266)" d="M0 0h256v256H0z"/><path fill="var(--flag-palette-white, #eeeeee)" d="M232 256h24v-24L152 128 256 24V0h-24L128 104 24 0H0v24l104 104L0 232v24h24l104-104z"/><path fill="var(--flag-palette-white, #eeeeee)" d="M256 160V96h-96V0H96v96H0v64h96v96h64v-96z"/><path fill="var(--flag-palette-bright-red, #d80027)" d="M256 144v-32H144V0h-32v112H0v32h112v112h32V144z"/><path fill="var(--flag-palette-bright-red, #d80027)" d="M0 16V0l96 96H80zm256 224v16l-96-96h16zM16 256H0l96-96v16zM240 0h16l-96 96V80z"/><path fill="var(--flag-palette-dark-yellow, #ffc635)" fill-rule="evenodd" d="m296.7 360.2 11.4 6 .6.2-1.4 2.9-1.2 2.8 2.8 1.3a183 183 0 0 0 150.3 0l2.8-1.3-1.3-2.8-1.3-3 .6-.2q5.9-2.7 11.4-6l4.6-2.6-4.6-2.7-9.5-6q-.2-6.2-.7-12.2l-.4-4.8-4.2 2.4q-5.7 3.3-11.7 6l-6.2 2.8 1.8 4.9a151 151 0 0 1-113.2-.1l2-4.8-6.1-2.8q-6-2.7-11.7-6l-4.2-2.4-.4 4.9-.6 12-9.6 6.1-4.7 2.7z" clip-rule="evenodd"/><path fill="var(--flag-palette-green, #6da544)" d="M384 211.5a44.5 44.5 0 1 0 0-89 44.5 44.5 0 0 0 0 89"/><path fill="var(--flag-palette-light-blue, #338af3)" d="M306 211.5v66.8c0 59.6 78 77.9 78 77.9s78-18.3 78-78v-66.7z"/><path fill="var(--flag-palette-light-grey, #f3f3f3)" d="M384 247.1c-19.5 0-19.5 17.9-39 17.9-19.4 0-19.4-17.9-39-17.9v31.2c19.6 0 19.6 17.8 39 17.8 19.5 0 19.5-17.8 39-17.8s19.5 17.8 39 17.8c19.4 0 19.4-17.8 39-17.8v-31.2c-19.6 0-19.6 17.9-39 17.9-19.5 0-19.5-17.9-39-17.9m0-62.3c-19.5 0-19.5 17.8-39 17.8-19.4 0-19.4-17.8-39-17.8v31.1c19.6 0 19.6 17.8 39 17.8 19.5 0 19.5-17.8 39-17.8s19.5 17.8 39 17.8c19.4 0 19.4-17.8 39-17.8v-31.1c-19.6 0-19.6 17.8-39 17.8-19.5 0-19.5-17.8-39-17.8"/></svg>
